MonoIcons/scalable/status/microphone-sensitivity-muted-symbolic.svg

<?xml version="1.0" encoding="UTF-8"?>
<svg height="16px" viewBox="0 0 16 16" width="16px" xmlns="http://www.w3.org/2000/svg">
    <g fill="#2e3436">
        <path d="m 8 0 c -1.660156 0 -3 1.339844 -3 3 v 5 c 0 1.660156 1.339844 3 3 3 c 0.359375 0 0.699219 -0.066406 1.015625 -0.179688 c 0.039063 -0.453124 0.230469 -0.894531 0.570313 -1.234374 c 0.332031 -0.332032 0.769531 -0.535157 1.234374 -0.574219 c 0.113282 -0.316407 0.179688 -0.65625 0.179688 -1.011719 v -5 c 0 -1.660156 -1.339844 -3 -3 -3 z m 0 2 c 0.554688 0 1 0.445312 1 1 v 5 c 0 0.554688 -0.445312 1 -1 1 s -1 -0.445312 -1 -1 v -5 c 0 -0.554688 0.445312 -1 1 -1 z m -6 4 v 2.011719 c 0 2.964843 2.164062 5.421875 5 5.898437 v 2.089844 h 2 v -2.089844 c 0.128906 -0.023437 0.253906 -0.046875 0.382812 -0.078125 c 0.058594 -0.085937 0.125 -0.167969 0.203126 -0.246093 l 0.414062 -0.414063 v -0.34375 l -0.414062 -0.414063 c -0.050782 -0.050781 -0.101563 -0.105468 -0.144532 -0.164062 c -0.449218 0.15625 -0.933594 0.25 -1.441406 0.25 c -2.507812 0 -4.5 -1.988281 -4.5 -4.488281 v -2.011719 z m 10.5 0 v 2.011719 c 0 0.503906 -0.089844 0.980469 -0.246094 1.429687 c 0.054688 0.042969 0.109375 0.09375 0.160156 0.144532 l 0.414063 0.414062 h 0.34375 l 0.414063 -0.414062 c 0.078124 -0.078126 0.160156 -0.144532 0.246093 -0.210938 c 0.109375 -0.4375 0.167969 -0.894531 0.167969 -1.363281 v -2.011719 z m 0 0" fill-opacity="0.34902"/>
        <path d="m 11 10 c -0.265625 0 -0.519531 0.105469 -0.707031 0.292969 c -0.390625 0.390625 -0.390625 1.023437 0 1.414062 l 1.292969 1.292969 l -1.292969 1.292969 c -0.390625 0.390625 -0.390625 1.023437 0 1.414062 s 1.023437 0.390625 1.414062 0 l 1.292969 -1.292969 l 1.292969 1.292969 c 0.390625 0.390625 1.023437 0.390625 1.414062 0 s 0.390625 -1.023437 0 -1.414062 l -1.292969 -1.292969 l 1.292969 -1.292969 c 0.390625 -0.390625 0.390625 -1.023437 0 -1.414062 c -0.1875 -0.1875 -0.441406 -0.292969 -0.707031 -0.292969 s -0.519531 0.105469 -0.707031 0.292969 l -1.292969 1.292969 l -1.292969 -1.292969 c -0.1875 -0.1875 -0.441406 -0.292969 -0.707031 -0.292969 z m 0 0"/>
    </g>
</svg>

<svg width="16" height="16" viewBox="0 0 16 16" fill="none" xmlns="http://www.w3.org/2000/svg">
<path d="M8 0C6.33984 0 5 1.33984 5 3V8C5 9.66016 6.33984 11 8 11C8.35938 11 8.69922 10.9336 9.01562 10.8203C9.05469 10.3672 9.24609 9.92578 9.58594 9.58594C9.91797 9.25391 10.3555 9.05078 10.8203 9.01172C10.9336 8.69531 11 8.35547 11 8V3C11 1.33984 9.66016 0 8 0V0ZM8 2C8.55469 2 9 2.44531 9 3V8C9 8.55469 8.55469 9 8 9C7.44531 9 7 8.55469 7 8V3C7 2.44531 7.44531 2 8 2ZM2 6V8.01172C2 10.9766 4.16406 13.4336 7 13.9102V16H9V13.9102C9.12891 13.8867 9.25391 13.8633 9.38281 13.832C9.44141 13.7461 9.50781 13.6641 9.58594 13.5859L10 13.1719V12.8281L9.58594 12.4141C9.53516 12.3633 9.48438 12.3086 9.44141 12.25C8.99219 12.4062 8.50781 12.5 8 12.5C5.49219 12.5 3.5 10.5117 3.5 8.01172V6H2ZM12.5 6V8.01172C12.5 8.51562 12.4102 8.99219 12.2539 9.44141C12.3086 9.48438 12.3633 9.53516 12.4141 9.58594L12.8281 10H13.1719L13.5859 9.58594C13.6641 9.50781 13.7461 9.44141 13.832 9.375C13.9414 8.9375 14 8.48047 14 8.01172V6H12.5Z" fill="#2E3436" fill-opacity="0.5"/>
<path d="M11 10C10.7344 10 10.4805 10.1055 10.293 10.293C9.90234 10.6836 9.90234 11.3164 10.293 11.707L11.5859 13L10.293 14.293C9.90234 14.6836 9.90234 15.3164 10.293 15.707C10.6836 16.0977 11.3164 16.0977 11.707 15.707L13 14.4141L14.293 15.707C14.6836 16.0977 15.3164 16.0977 15.707 15.707C16.0977 15.3164 16.0977 14.6836 15.707 14.293L14.4141 13L15.707 11.707C16.0977 11.3164 16.0977 10.6836 15.707 10.293C15.5195 10.1055 15.2656 10 15 10C14.7344 10 14.4805 10.1055 14.293 10.293L13 11.5859L11.707 10.293C11.5195 10.1055 11.2656 10 11 10V10Z" fill="#2E3436"/>
</svg>
